!!!!SEGMENT: pl-wtm--r-730-13-m_moniuszko-stanislaw--kukulka.krn
!!!cenid: 18xx:1693
!!!COM: Moniuszko, Stanisław
!!!COM-rismid: pe30008351
!!!CDT: 1819/05/05-1872/06/04
!!!CNT: Polish
!!!OTL: Kukułka
!!!PDT:
!!!AGN: Secular
!!!SMS-siglum: PL-Wtm
!!!SMS-shelfmark: R 730/13/M
!!!SMS-shelfwork: W
!!!SMS-variant:
!!!SMS-altvar:
!!!NIFC-rismid: 1001099796
!!!URL-scan: http://repozytorium.nifc.pl/skany/pl-wtm-nut--r730m-1-43
!!!ONB-nifc: Skan 0019. No. 765
!!!key:
**kern	**kern	**kern	**text	**text	**text	**text
*part2	*part2	*part1	*part1	*part1	*part1	*part1
*staff3	*staff2	*staff1	*staff1	*staff1	*staff1	*staff1
*Iforte	*Iempty	*Ivox	*	*	*	*
*I"[Fortepian]	*	*I"[Głos]	*	*	*	*
*I'pf	*	*I'V	*	*	*	*
*clefF4	*clefG2	*clefG2	*	*	*	*
*k[f#c#]	*k[f#c#]	*k[f#c#]	*	*	*	*
*D:	*D:	*D:	*	*	*	*
*M6/8	*M6/8	*M6/8	*	*	*	*
*>[A,B,B,C]	*>[A,B,B,C]	*>[A,B,B,C]	*	*	*	*
=1	=1	=1	=1	=1	=1	=1
!!LO:TX:t=P:problem:all\right:global
*^	*	*	*	*	*	*
*>A	*>A	*>A	*>A	*	*	*	*
*	*2\right	*	*	*	*	*	*
!	!	!	!LO:TX:t=P:problem:z nawiasem w tytule	!	!	!	!
!	!	!	!LO:TX:a:i:t=Kukułka  (z Molitelki. /	!	!	!	!
4.D/	2.DD\	8f#^/L 8a	2.ryy	.	.	.	.
.	.	8d/	.	.	.	.	.
.	.	8A/J	.	.	.	.	.
8C#/L	.	8f#/L 8a	.	.	.	.	.
8E/	.	8c#/	.	.	.	.	.
!LO:TX:t=[segno]	!	!LO:TX:t=[segno]	!LO:TX:t=[segno]	!	!	!	!
8AA/J	.	8A/J	.	.	.	.	.
=2||:	=2||:	=2||:	=2||:	=2||:	=2||:	=2||:	=2||:
*>B	*>B	*>B	*>B	*	*	*	*
4.D/	2.DD\	8f#/L 8a	4r	.	.	.	.
.	.	8d/	.	.	.	.	.
.	.	8A/J	8r	.	.	.	.
8C#/L	.	8e/L 8a	4r	.	.	.	.
8E/	.	8c#/	.	.	.	.	.
8AA/J	.	8A/J	8a/	Dą-	Spo-	Ty	I
=3	=3	=3	=3	=3	=3	=3	=3
4.D/	2.DD\	8f#/L	4f#/	-bro-	-czę-	kie-	po-
.	.	8d/	.	.	.	.	.
.	.	8A/J	8g/	-wą	-ła	-dyś	.
4.AA/	.	8f#/L 8a	4a/	szła	.	.	-szła
.	.	8d/	.	.	.	.	.
.	.	8A/J	8b/	.	w_do-	ma-	do
*v	*v	*	*	*	*	*	*
=4	=4	=4	=4	=4	=4	=4
*^	*	*	*	*	*	*
*rep	*rep	*rep	*	*	*	*	*
4.D/	2.DD\	(8f#/L	(4f#/	ma-	-li-	-leń-	sio-
.	.	8d/	.	.	.	.	.
.	.	8A/J)	8g/)	.	.	.	.
4.AA/	.	(8f#/L 8a	(4a/	-tka	-nie	-ki	-ła
.	.	8d/	.	.	.	.	.
.	.	8A/J)	8b/)	i	dać	tak	od-
*Xrep	*Xrep	*Xrep	*	*	*	*	*
*v	*v	*	*	*	*	*	*
=5	=5	=5	=5	=5	=5	=5
2.AA/	8e/L 8a	8a/	nio-	pier-	za-	-no-
.	8c#/	8g/	-sła	-si	-czniesz	-sząc
.	8A/J	8f#/	gdzie	dzie-	pio-	chło-
*	*rep	*	*	*	*	*
.	8e/L 8a	8e/	cha-	-ci-	-sne-	-pa-
.	8c#/	8f#/	-tka	-nie	-czki	-czka
.	8A/J	8g/	we-	dziś	twey	z_Koś-
*	*Xrep	*	*	*	*	*
=6	=6	=6	=6	=6	=6	=6
2.D\	(8f#/L 8a	4.a/	-so-	wcze-	Mat-	-cio-
.	8d/	.	.	.	.	.
.	8A/J)	.	.	.	.	.
.	(8f#/L	8f#/	-ła	-śnij	-ce	-ła
.	8d/	8r	.	.	.	.
.	8A/J)	8f#/	Chrztem	I	i	ku-
=7	=7	=7	=7	=7	=7	=7
*^	*	*	*	*	*	*
4.D/	2.DD\	(8f#/L	(4f#/	swię-	stru-	bę-	-kuł-
.	.	8d/	.	.	.	.	.
.	.	8A/J)	8g/)	.	.	.	.
4.AA/	.	(8f#/L 8a	(4a/	-tym	-gi	-dziesz	-ka
.	.	8d/	.	.	.	.	.
.	.	8A/J)	8b/)	o-	mru-	tak	ku-
!!LO:LB:g=original
=8	=8	=8	=8	=8	=8	=8	=8
4.D/	2.DD\	8f#/L	(4f#/	-bmy-	-cza-	hu-	-ka-
.	.	8d/	.	.	.	.	.
.	.	8A/J	8g/)	.	.	.	.
4.AA/	.	8f#/L 8a	4a/	-te	-ły	-kać,	-ła
.	.	8d/	.	.	.	.	.
.	.	8A/J	8b\	dzie-	i	ia	a
*v	*v	*	*	*	*	*	*
=9	=9	=9	=9	=9	=9	=9
2.AA/	(8e/L 8a	8cc#\	-cią-	ptasz-	bę-	Ma-
.	8c#/	8b\	-tko	-ki	-dę	-tka
.	8A/J)	8a\	spo-	spie-	cie	pła-
.	(8e/L 8a	8g/	-wi-	-wa-	szu-	-ka-
.	8c#/	8f#/	-te	-ły	-kać	-ła
.	8A/J)	8e/	z_Ko-	swe	po	bie-
=10	=10	=10	=10	=10	=10	=10
2.DD/ 2.D	(8f#/L 8a	4.f#/	-ścio-	pieś-	chat-	-dacz-
.	8d/	.	.	.	.	.
.	8A/J)	.	.	.	.	.
.	(8f#/L 8a	8f#/	.	.	.	.
.	8d/	8a/	-ła	-ni	-ce	-ka
.	8A/J)	8ryy	.	.	.	.
=11	=11	=11	=11	=11	=11	=11
(4.GG^/ 4.G	(8g/L 8b	4dd\	Spi	a	znay-	aż
.	8d/	.	.	.	.	.
.	8B/J)	8b\	A-	nay-	-dę	po
!LO:N:vis=4	!	!	!	!	!	!
4.D/)	8f#/L 8a	4a/	-nioł-	-bar-	a	ro-
.	8d/	.	.	.	.	.
.	8A/J	8f#/	-ku	-dziy	ty	-ku
=12	=12	=12	=12	=12	=12	=12
*rep	*rep	*	*	*	*	*
(4.GG^/ 4.G	(8g/L 8b	4dd\	mo-	mi-	znów	sli-
.	8d/	.	.	.	.	.
.	8B/J)	8b\	-ie	-łym	się	-czne
!LO:N:vis=4	!	!	!	!	!	!
4.D/)	8f#/L 8a	4a/	ży-	spie-	cho-	zdro-
.	8d/	.	.	.	.	.
.	8A/J	8f#/	-cie	-wem	-wać	-we
*Xrep	*Xrep	*	*	*	*	*
=13	=13	=13	=13	=13	=13	=13
2.AA/	8e/L 8a	8g/L	mo-	wo-	im	bie-
.	8c#/	8f#/	.	.	.	.
.	8A/J	8e/J	-ie	-ła	.	-gło
*	*rep	*	*	*	*	*
.	8e/L 8a	8b/L	szczę-	ku-	a-	dzie-
.	8c#/	8a/J	.	.	-nioł-	-cię
.	8A/J	8g/	-ści	-ku	-ka	przez
*	*Xrep	*	*	*	*	*
=14	=14	=14	=14	=14	=14	=14
2.D\	8e/L 8a	4f#/	mo-	nad	znów	dą-
.	8d/	.	.	.	.	.
.	8A/J	8g/	-ie	swem	ca-	-bro-
*	*rep	*	*	*	*	*
.	8e/L 8a	8a/	dzie-	drze-	-ło-	-wę
.	8d/	8b/	-cie	-wem	-wać	iey
.	8A/J	8cc#/	moy	Ku-	tak	.
*	*Xrep	*	*	*	*	*
!!LO:LB:g=original
=15	=15	=15	=15	=15	=15	=15
*	*	*2\right	*	*	*	*
!	!	!LO:N:vis=2	!	!	!	!
2.DD/ 2.D	8f#/L 8b	2.dd\	Syn-	-kuł-	[bę]dę	sy-
.	8d/	.	.	.	.	.
.	8B/J	.	.	.	.	.
.	8f#/L 8a	.	.	.	.	.
!	!LO:SIC:v:s=8d	!	!	!	!	!
.	8e/	.	.	.	.	.
.	8A/J	.	.	.	.	.
=16	=16	=16	=16	=16	=16	=16
4.BB/	8e/L 8a	4a/	-ku	-ka	tak	-nek
.	8c#/	.	.	.	.	.
.	8A/J	8r	.	.	.	.
4.C#/	8g/L 8a	4.a/	móy	Ku-	bę-	.
.	8e/	.	.	.	.	.
.	8A/J	.	.	.	.	.
=17	=17	=17	=17	=17	=17	=17
!	!	!LO:N:vis=2	!	!	!	!
4.D/	8f#/L 8a	[>2.a/	Syn-	-łKa	.	iey
.	8d/	.	.	.	.	.
.	8A/J	.	.	.	.	.
4.AA/	8e/L 8a	.	.	.	.	.
.	8c#/	.	.	.	.	.
.	8A/J	.	.	.	.	.
=18	=18	=18	=18	=18	=18	=18
*rep	*rep	*	*	*	*	*
!	!	!LO:N:vis=2	!	!	!	!
4.D/	8f#/L 8a	2.a/]	.	Kuł-	.	Sy-
.	8d/	.	.	.	.	.
.	8A/J	.	.	.	.	.
4.AA/	8e/L 8a	.	.	.	.	.
.	8c#/	.	.	.	.	.
.	8A/J	.	.	.	.	.
*Xrep	*Xrep	*	*	*	*	*
=19	=19	=19	=19	=19	=19	=19
*^	*	*	*	*	*	*
!	!	!LO:N:vis=4	!	!	!	!	!
4.D/	2.DD\	4.a/	4d/	-ku	-ka	-dę	-nek
.	.	.	8r	.	.	.	.
*	*	*rep	*	*	*	*	*
!	!	!LO:N:vis=4	!	!	!	!	!
8C#/L	.	4.a/	4r	.	.	.	.
*	*	*Xrep	*	*	*	*	*
8E/	.	.	.	.	.	.	.
!LO:TX:t=[segno]	!	!LO:TX:t=[segno]	!LO:TX:t=[segno]	!	!	!	!
8AA/J	.	.	8r	.	.	.	.
*v	*v	*	*	*	*	*	*
=20:||	=20:||	=20:||	=20:||	=20:||	=20:||	=20:||
*>C	*>C	*>C	*	*	*	*
4DD/ 4D	8f#/L 8a	4d/	.	.	.	.
.	8d/	.	.	.	.	.
8r	8A/J	8r	.	.	.	.
4r	8d/L	4r	.	.	.	.
.	8f#/	.	.	.	.	.
8r	8a/J	8r	.	.	.	.
=21	=21	=21	=21	=21	=21	=21
2.r;	2.dd\ 2.ff#	2.r;	.	.	.	.
!!LO:PB:g=original
==	==	==	==	==	==	==
*-	*-	*-	*-	*-	*-	*-
!!!system-decoration: s1{(s2,s3)}
!!!RDF**kern: < = below
!!!RDF**kern: > = above
!!!AIN: 1 forte 1 vox
!!!ENC: Marta Chmielewska
!!!END: 2021-04-19
!!!ENC: Marcin Jachim
!!!END: 2021-03-30
